src/pos-icons/file-settings.svg

<svg height="24" viewBox="0 0 24 24" width="24" xmlns="http://www.w3.org/2000/svg"><path d="m6 0c-1.11 0-2 .89-2 2v16a2 2 0 0 0 2 2h12a2 2 0 0 0 2-2v-12l-6-6zm7 1.5 5.5 5.5h-5.5zm-6 20.5v2h2v-2zm4 0v2h2v-2zm4 0v2h2v-2z"/></svg>

<?xml version="1.0" encoding="UTF-8"?><!DOCTYPE svg PUBLIC "-//W3C//DTD SVG 1.1//EN" "http://www.w3.org/Graphics/SVG/1.1/DTD/svg11.dtd"><svg xmlns="http://www.w3.org/2000/svg" xmlns:xlink="http://www.w3.org/1999/xlink" version="1.1" id="mdi-file-settings" width="24" height="24" viewBox="0 0 24 24"><path d="M6 0C4.89 0 4 .89 4 2V18A2 2 0 0 0 6 20H18A2 2 0 0 0 20 18V6L14 0H6M13 1.5L18.5 7H13V1.5M7 22V24H9V22H7M11 22V24H13V22H11M15 22V24H17V22H15Z" /></svg>
